src/images_karasa_jaga_svg/cmd/32/greatestwidth.svg

<svg height="32" width="32" xmlns="http://www.w3.org/2000/svg" xmlns:xlink="http://www.w3.org/1999/xlink"><linearGradient id="a" gradientTransform="matrix(-1.1263718 0 0 1.9711507 134.34054 68.57698)" gradientUnits="userSpaceOnUse" x1="100.02859" x2="38.063507" xlink:href="#f" y1="20.118034" y2="20.118034"/><linearGradient id="b" gradientTransform="matrix(.129048 0 0 .07807154 -7.875381 -2.902123)" gradientUnits="userSpaceOnUse" x1="399.77466" x2="399.77466" y1="1164.6696" y2="549.06134"><stop offset="0" stop-color="#b4b4b6"/><stop offset=".5" stop-color="#9c9ca1"/><stop offset="1" stop-color="#cdcdd1"/></linearGradient><linearGradient id="c" gradientTransform="matrix(1.1666667 0 0 .4444445 -10.666665 35.555557)" gradientUnits="userSpaceOnUse" x1="11.523571" x2="119.74484" y1="251.25061" y2="-32.830193"><stop offset="0" stop-color="#fff"/><stop offset=".42597079" stop-color="#fff"/><stop offset=".5892781" stop-color="#f1f1f1"/><stop offset=".80219781" stop-color="#eaeaea"/><stop offset="1" stop-color="#dfdfdf"/></linearGradient><linearGradient id="d" gradientUnits="userSpaceOnUse" x1="94.073692" x2="59.646366" y1="37.710915" y2="72.138237"><stop offset="0" stop-color="#fff"/><stop offset="1" stop-color="#fff" stop-opacity="0"/></linearGradient><linearGradient id="e" gradientTransform="matrix(1.1263718 0 0 1.9711507 -2.340539 68.57698)" gradientUnits="userSpaceOnUse" x1="100.02859" x2="38.063507" xlink:href="#f" y1="20.118034" y2="20.118034"/><linearGradient id="f"><stop offset="0" stop-color="#0968ef"/><stop offset="1" stop-color="#aecffc"/></linearGradient><g transform="scale(.25)"><path d="m44 44h-37.40625c-1.5828572 0-2.84375 1.247097-2.84375 2.78125l.25 34.4375c0 1.534154 1.2608929 2.78125 2.84375 2.78125h37.15625 40 37.15625c1.58286 0 2.84375-1.247093 2.84375-2.78125l.05-34.4375c0-1.534154-1.26089-2.78125-2.84375-2.78125h-37.20625z" fill="url(#b)"/><g fill-rule="evenodd"><path d="m48 48h-38.5c-.8309999 0-1.5.63728-1.5 1.4375v29.125c0 .800222.6689999 1.4375 1.5 1.4375h38.5 32 38.5c.831 0 1.5-.63728 1.5-1.4375v-29.125c0-.800222-.669-1.4375-1.5-1.4375h-38.5z" fill="url(#c)"/><path d="m68.537109 48c-7.680674 8.259531-14.445872 17.150647-19.443359 27.0625l38.90625 4.9375c1.231419-9.569615 2.403626-23.550225 6.3125-32h-14.3125z" fill="url(#d)"/><path d="m76 108h39.68803l-3.45723 5.8846 15.7692-7.8846-15.7692-7.8846 3.41036 5.8846h-39.64116z" fill="url(#e)" stroke-width="1.126372"/></g><path d="m56 96v20h20v-20zm4 4h12v12l-11.9375.0312z" fill="#797979"/><path d="m56 108h-39.68803l3.45723 5.8846-15.7692-7.8846 15.7692-7.8846-3.41036 5.8846h39.64116z" fill="url(#a)" fill-rule="evenodd" stroke-width="1.126372"/></g></svg>

<?xml version="1.0" encoding="UTF-8" standalone="no"?>
<!-- Created with Inkscape (http://www.inkscape.org/) -->

<svg
   xmlns:dc="http://purl.org/dc/elements/1.1/"
   xmlns:cc="http://creativecommons.org/ns#"
   xmlns:rdf="http://www.w3.org/1999/02/22-rdf-syntax-ns#"
   xmlns:svg="http://www.w3.org/2000/svg"
   xmlns="http://www.w3.org/2000/svg"
   xmlns:xlink="http://www.w3.org/1999/xlink"
   xmlns:sodipodi="http://sodipodi.sourceforge.net/DTD/sodipodi-0.dtd"
   xmlns:inkscape="http://www.inkscape.org/namespaces/inkscape"
   width="128"
   height="128"
   id="svg3408"
   sodipodi:version="0.32"
   inkscape:version="0.92.2 (unknown)"
   version="1.0"
   sodipodi:docname="greatestwidth.svg"
   inkscape:output_extension="org.inkscape.output.svgz.inkscape"
   inkscape:export-filename="/home/rizmut/Dokumen/Rizmut/Github/libreoffice-style-karasa-jaga/build/images_karasa_Jaga/cmd/32/greatestwidth.png"
   inkscape:export-xdpi="24"
   inkscape:export-ydpi="24">
  <defs
     id="defs3410">
    <inkscape:perspective
       sodipodi:type="inkscape:persp3d"
       inkscape:vp_x="0 : 64 : 1"
       inkscape:vp_y="0 : 1000 : 0"
       inkscape:vp_z="128 : 64 : 1"
       inkscape:persp3d-origin="64 : 42.666667 : 1"
       id="perspective27" />
    <linearGradient
       inkscape:collect="always"
       id="linearGradient3310">
      <stop
         style="stop-color:#ffffff;stop-opacity:1;"
         offset="0"
         id="stop3312" />
      <stop
         style="stop-color:#ffffff;stop-opacity:0;"
         offset="1"
         id="stop3314" />
    </linearGradient>
    <linearGradient
       id="linearGradient3369">
      <stop
         style="stop-color:#ffffff;stop-opacity:1;"
         offset="0"
         id="stop3372" />
      <stop
         id="stop3374"
         offset="0.42597079"
         style="stop-color:#ffffff;stop-opacity:1;" />
      <stop
         id="stop3376"
         offset="0.5892781"
         style="stop-color:#f1f1f1;stop-opacity:1;" />
      <stop
         style="stop-color:#eaeaea;stop-opacity:1;"
         offset="0.80219781"
         id="stop3378" />
      <stop
         style="stop-color:#dfdfdf;stop-opacity:1;"
         offset="1"
         id="stop3384" />
    </linearGradient>
    <linearGradient
       id="linearGradient7422">
      <stop
         id="stop7424"
         offset="0"
         style="stop-color:#b4b4b6;stop-opacity:1;" />
      <stop
         style="stop-color:#9c9ca1;stop-opacity:1;"
         offset="0.5"
         id="stop5348" />
      <stop
         style="stop-color:#cdcdd1;stop-opacity:1;"
         offset="1"
         id="stop7426" />
    </linearGradient>
    <linearGradient
       inkscape:collect="always"
       xlink:href="#linearGradient7422"
       id="linearGradient2427"
       gradientUnits="userSpaceOnUse"
       gradientTransform="matrix(0.129048,0,0,7.8071538e-2,-7.8753813,-2.9021226)"
       x1="399.77466"
       y1="1164.6696"
       x2="399.77466"
       y2="549.06134" />
    <linearGradient
       inkscape:collect="always"
       xlink:href="#linearGradient3369"
       id="linearGradient2429"
       gradientUnits="userSpaceOnUse"
       gradientTransform="matrix(1.1666667,0,0,0.4444445,-10.666665,35.555557)"
       x1="11.523571"
       y1="251.25061"
       x2="119.74484"
       y2="-32.830193" />
    <linearGradient
       inkscape:collect="always"
       xlink:href="#linearGradient3310"
       id="linearGradient2444"
       gradientUnits="userSpaceOnUse"
       gradientTransform="matrix(1.3706519,0,0,1.3706519,-39.404461,9.2589603)"
       x1="97.382973"
       y1="20.757973"
       x2="72.265488"
       y2="45.875454" />
    <linearGradient
       inkscape:collect="always"
       xlink:href="#linearGradient2399"
       id="linearGradient3516"
       x1="100.02859"
       y1="20.118034"
       x2="38.063507"
       y2="20.118034"
       gradientUnits="userSpaceOnUse"
       gradientTransform="matrix(0.9999999,0,0,1.75,6.000004,72.75)" />
    <linearGradient
       id="linearGradient2399">
      <stop
         style="stop-color:#0968ef;stop-opacity:1;"
         offset="0"
         id="stop2401" />
      <stop
         style="stop-color:#aecffc;stop-opacity:1;"
         offset="1"
         id="stop2403" />
    </linearGradient>
    <linearGradient
       inkscape:collect="always"
       xlink:href="#linearGradient2399"
       id="linearGradient4085"
       gradientUnits="userSpaceOnUse"
       gradientTransform="matrix(-0.9999999,0,0,1.75,124,72.75)"
       x1="100.02859"
       y1="20.118034"
       x2="38.063507"
       y2="20.118034" />
  </defs>
  <sodipodi:namedview
     id="base"
     pagecolor="#ffffff"
     bordercolor="#666666"
     borderopacity="1.0"
     inkscape:pageopacity="0.0"
     inkscape:pageshadow="2"
     inkscape:zoom="2.8284273"
     inkscape:cx="55.029271"
     inkscape:cy="22.152852"
     inkscape:document-units="px"
     inkscape:current-layer="layer1"
     height="128px"
     width="128px"
     showborder="true"
     inkscape:showpageshadow="false"
     showgrid="true"
     inkscape:window-width="1366"
     inkscape:window-height="691"
     inkscape:window-x="0"
     inkscape:window-y="26"
     showguides="true"
     inkscape:guide-bbox="true"
     inkscape:window-maximized="1">
    <inkscape:grid
       id="GridFromPre046Settings"
       type="xygrid"
       originx="0"
       originy="0"
       spacingx="4"
       spacingy="4"
       color="#0000ff"
       empcolor="#0000ff"
       opacity="0.2"
       empopacity="0.4"
       empspacing="2" />
  </sodipodi:namedview>
  <metadata
     id="metadata3413">
    <rdf:RDF>
      <cc:Work
         rdf:about="">
        <dc:format>image/svg+xml</dc:format>
        <dc:type
           rdf:resource="http://purl.org/dc/dcmitype/StillImage" />
        <dc:title></dc:title>
      </cc:Work>
    </rdf:RDF>
  </metadata>
  <g
     inkscape:label="Livello 1"
     inkscape:groupmode="layer"
     id="layer1">
    <path
       style="fill:url(#linearGradient2427);fill-opacity:1;fill-rule:nonzero;stroke:none;stroke-width:2;stroke-linecap:round;stroke-linejoin:round;stroke-miterlimit:4;stroke-dasharray:none;stroke-dashoffset:4;stroke-opacity:1"
       d="M 44,44 H 6.59375 C 5.0108928,44 3.75,45.247097 3.75,46.78125 L 4,81.21875 C 4,82.752904 5.2608929,84 6.84375,84 H 44 84 121.15625 C 122.73911,84 124,82.752907 124,81.21875 l 0.05,-34.4375 C 124.05,45.247096 122.78911,44 121.20625,44 H 84 Z"
       id="rect2324"
       sodipodi:nodetypes="ccccccccccccc"
       inkscape:connector-curvature="0" />
    <path
       style="fill:url(#linearGradient2429);fill-opacity:1;fill-rule:evenodd;stroke:none;stroke-width:8;stroke-linecap:round;stroke-linejoin:round;stroke-miterlimit:4;stroke-dasharray:none;stroke-opacity:1"
       d="M 48,48 H 9.5 C 8.6690001,48 8,48.63728 8,49.4375 v 29.125 C 8,79.362722 8.6689999,80 9.5,80 H 48 80 118.5 c 0.831,0 1.5,-0.63728 1.5,-1.4375 V 49.4375 C 120,48.637278 119.331,48 118.5,48 H 80 Z"
       id="rect2326"
       inkscape:connector-curvature="0"
       sodipodi:nodetypes="cssssccsssscc" />
    <path
       style="fill:url(#linearGradient2444);fill-opacity:1;fill-rule:evenodd;stroke:none;stroke-width:1px;stroke-linecap:butt;stroke-linejoin:miter;stroke-opacity:1"
       d="M 68.537109 48 C 60.856435 56.259531 54.091237 65.150647 49.09375 75.0625 L 88 80 C 89.231419 70.430385 90.403626 56.449775 94.3125 48 L 80 48 L 68.537109 48 z "
       id="path3318" />
    <path
       inkscape:connector-curvature="0"
       sodipodi:nodetypes="cccccccc"
       id="path4083"
       d="M 58,107.75 H 15.000001 l 3,5.25 -14,-7 14,-7 -3,5.25 H 58 Z"
       style="fill:url(#linearGradient4085);fill-opacity:1;fill-rule:evenodd;stroke:none;stroke-width:2;stroke-linecap:butt;stroke-linejoin:miter;stroke-miterlimit:4;stroke-dasharray:none;stroke-opacity:1" />
    <path
       inkscape:connector-curvature="0"
       style="fill:none;fill-rule:evenodd;stroke:#000000;stroke-width:1px;stroke-linecap:butt;stroke-linejoin:miter;stroke-opacity:1"
       d="M 100,112 Z"
       id="path3341" />
    <path
       inkscape:connector-curvature="0"
       style="fill:url(#linearGradient3516);fill-opacity:1;fill-rule:evenodd;stroke:none;stroke-width:2;stroke-linecap:butt;stroke-linejoin:miter;stroke-miterlimit:4;stroke-dasharray:none;stroke-opacity:1"
       d="M 72.000001,107.75 H 113 l -3,5.25 14,-7 -14,-7 3,5.25 H 72.000001 Z"
       id="path3343"
       sodipodi:nodetypes="cccccccc" />
    <path
       inkscape:connector-curvature="0"
       style="fill:#797979;fill-opacity:1;fill-rule:nonzero;stroke:none;stroke-width:2;stroke-linecap:butt;stroke-linejoin:miter;stroke-miterlimit:4;stroke-dashoffset:0;stroke-opacity:1"
       d="m 57,97 v 18 H 75 V 97 Z m 3,3 h 12 v 12 l -11.9375,0.0312 z"
       id="rect8559"
       sodipodi:nodetypes="cccccccccc" />
  </g>
</svg>
